X:1
T:At the Cross
T:At the Cross
T:Ralph E. Hudson
T:Isaac Watts
T:
T:Public Domain
C:Ralph E. Hudson
Z:Public Domain
L:1/8
M:4/4
K:Eb
V:1 treble 
%%MIDI program 0
%%MIDI control 7 100
%%MIDI control 10 64
V:1
"Eb" E2 | G3 F E2 G2 | B3 A G2 B2 |"Ab" c2"Eb" B2"Bb7" A2"Eb" G2 |"Bb" F6"Eb" E2 | G3 F E2 G2 | %6
w: 1.~A~~~~-|las, and did my|Sav- iour bleed, And|did my Sov- 'reign|die? Would|He de- vote that|
w: 2.~Was|it for crimes that|I have done He|groaned up- on the|tree? A-|maz- ing pit- y,|
w: 3.~Well|might the sun in|dark- ness hide, And|shut his glo- ries|in When|Christ, the migh- ty|
w: 4.~But~~|drops of grief can|ne'er re- pay The|debt of love I|owe. Here,|Lord, I give my-|
 B3 c B2 E2 |"Fm" F2 A2"Bb" G2 F2 |"Eb" E6"^REFRAIN" EF | G2 G>G G2 AG |"Bb" (GF)F>E F2 FG | %11
w: sa- cred head For|such a worm as|I? At the|cross, at the cross, where I|first * saw the light, And the|
w: grace un- known, And|love be- yond de-|gree. * *|||
w: Mak- er died For|man, the crea- ture's|sin. * *|||
w: self a- way; 'Tis|all that I can|do. * *|||
 AAA>A A2 B>A |"Eb" G6 GG |"Ab" A2 A2 C2 AA |"Eb" G2 (GF) E2 G2 |"Ab" F2 FE"Bb" DAG>F |"Eb" E6 |] %17
w: bur- den on my heart rolled a-|way, It was|there, by faith, I re-|ceived my * sight And|now I am hap- py all the|day.|
w: ||||||
w: ||||||
w: ||||||

